X: 1
T: Staines Morris
% Nottingham Music Database
O: Playford 1651
P: AABBC(C)
M: 4/4
L: 1/4
K: Dm
|:\
"Dm"Ad "G"=B"A7"^c | "Dm"d"C7"c/B/ "F"A3/B/ |\
"F"c/d/c/B/ "(Gm)"AG/F/ | "A7"E/D/E/F/ "Dm"D ::\
"F"{E}F/G/A/B/ AG/F/ |
"C(A7)"E/D/E/F/ "Dm"D :|\
|:\
"F"{E}FF/-F/ CC/-C/ | "Bb"D/E/F/G/ "F"A3/B/ |\
"F"c/d/c/B/ "(Gm)"AG/F/ | "A7"E/D/E/F/ "Dm"D :|

%%sep 1 1 500
